X:17
T:The Contented Sportsman
N:page 15 on manuscript
M:3/4
L:1/8
K:F
cB | A2 c2 E2 | FGABcA | d4 (ef/g/) | (fe)(dc) (BA) | (dc) (BA)(GF) | (A2 G2) c2 | d4 ef | (ag)(fe)(dc) |
c2 d2 e>f | g2 z2 f>g | a2 z2 e>f | (ge)(dc)(=Bc) | (de/f/) (ed)(c=B) | c4 || ef | g2 c2 B2 | (Bd)(cB)(AB) | (B2 A2) d2 |
(^cA)(=Bc)(de) | f2 (gf)(ef) | (e2 d2 ) cB | (Af)(ef)(ed) | (dc)(cB)(BA) | (A2 G2) |: c2 | (3dcd B3 d | (3cBc A3 c | (3BAB G3 B |
(3AGA HF2 cB | (3AFA (3cAc f>c | dBAGFE | {E}F4 {(3AcA} {(3GAB} | A2 (3AcA (3 GAB | A2 (3fff (3fff | f4 :||

